X:188
T:I Hae a Wife of My Ain
R:Slip Jig
M:9/8
%%printtempo 0
Q:180
K:Em
"Em"EFE "D7"G2A "G"B3| "Em"EFE "C"G2A "Em"BGE| "Em"EFE "D7"G2A "G"B3 |"D"D2 D "G"d2B "D"AFD|
"Em"gag "D"fgf "C"e3| "Em"E2 E "D"G2A "Em"BGE| "Em"gag "D"fgf "C"e3| "Em"D2D "G"d2B "D"AFD|]
